X: 34229
T: Reel Ste-Louise
R: reel
M: 4/4
K: Dmajor
Ad|:f3f edeg|fafd Adfd|e/f/ece Aece|dcde fdAd|
f3f edeg|fafd Adfd|e/f/ece Aece|1 dfec d2 Ad:|2 dfec d2 ef||
|:gbge Aceg|fafd Adfd|e/f/ece Aece|dcde f2 ef|
gbge Aceg|fafd Adfd|e/f/ece Aece|1 dfec d2 ef:|2 dfec d4||

